X:1
T:Sæterjentens Søndag
T:Sæterjentens Søndag
T:Ole Bull, harmoniseret af F. A. Reissiger
T:Jørgen Moe
C:Ole Bull, harmoniseret af F.A. Reissiger
Z:Jørgen Moe
%%score [ 1 2 ( 3 4 ) 5 ]
L:1/8
Q:1/4=94
M:4/4
K:G
V:1 treble-8 nm="T1"
V:2 treble-8 nm="T2"
V:3 bass nm="B1"
V:4 bass 
V:5 bass nm="B2"
V:1
"^Andantino" z!p! B | G2 A3/2 F/ E3 D | G2!<(! B3/2 c/!<)! e3 f | e2!>(! d3/2 B/!>)! G2 F3/2 G/ | %4
w: 1. Paa|So- len jeg ser, det|li- der alt frem, snart|er det ved Høj- mes- se-|
w: 2. Hvad|nyt- ter det vel at|ta- ge sin bog og|syn- ge i He- jen sin|
 E2 !>!A4 z!p! B | G2 A3/2 F/ E3 D | G2!<(! B3/2 c/!<)! e3 f | e2!>(! d3/2 B/!>)! G2 A3/2 F/ | %8
w: ti- de. O|den, som en Stund fik|øn- ske sig hjem blandt|Folk som paa Kir- ke- vej|
w: Sal- me? Mit|Loft er for højt, og|her er det dog, som|To- ner- ne bleg- ne og|
 D2 !>!G4 z!mf! B | e2!<(! ^d3/2 e/!<)! f3 g | e2!>(! =d3/2 c/!>)! B3!mf! B | %11
w: skri- de! Naar|Sol- ski- ven sti- ger|lidt, saa den staar der-|
w: fal- me. O|den, som i- dag fik|blan- de sin Røst med|
!<(! e2 f3/2 ^g/!<)!!f! a2!>(! f3/2 e/!>)! | A2 !>!d4 z!p! B | G2 A3/2 F/ E3 D | %14
w: bort- te i Ska- ret i|Kam- men, da|ved jeg i Da- len|
w: hans og de øv- ri- ges|Stem- me! Gud|gi- ve, at snart det|
 G2!<(! B3/2 c/!<)! e3 f | e2!>(! d3/2 B/!>)! G2 A3/2 F/ | D2 !>!G4 |] %17
w: Klok- ker- ne gaar, da|rin- ger fra Taar- net det|sam- men.|
w: lak- ked mod Høst; Gud|gi- ve, jeg at- ter var|hjem- me!|
V:2
"_T II, B I, II con bocca chiusa"!pp! (B2 | B2 c6 | B4 ^A2) (A2 | B8 | c4)!pp! (c2 d2 | B2 c6 | %6
!<(! B4!<)! ^A2) (A2 |!>(! B4!>)! G2 c2 | B6)!p! (B2 |!<(! B4!<)! e2 ^d2 | %10
 e2!>(! A2-!>)! A2)!p! (A2 |!<(! G2 B2!<)!!mf! A2!>(! _B2!>)! | A6)!pp! (=B2 | B2 c6 | %14
!<(! B4!<)! ^A2) (A2 |!>(! B6!>)! c2 | B6) |] %17
V:3
!pp! (D,2 | D,2 F,2 A,4 | D,4 ^C,2) (C,2 | D,4 G,4 | E,4)!pp! (F,4 | D,2 F,2 A,4 | %6
!<(! D,4!<)! ^C,2) (C,2 |!>(! D,4!>)! E,7/2 _E,/ | D,6)!p! (B,A, |!<(! G,4!<)! C2 A,2 | %10
 G,2!>(! F,2-!>)! F,2)!p! (F,2 |!<(! G,2!<)! E,4!>(! G,2-!>)! | G,2 F,4)!pp! (G,2 | D,2 F,2 A,4 | %14
!<(! D,4!<)! ^C,2) (C,2 |!>(! D,4!>)! G,2 F,2 | G,2 D,4) |] %17
V:4
 x2 | x8 | x8 | x8 | x8 | x8 | x8 | x8 | x8 | x8 | x8 | x2 x2!mf!!mf! x2 x2 | x8 | x8 | x8 | x8 | %16
 x6 |] %17
V:5
!pp! (G,,2 | G,,8 |!<(! G,,4!<)! G,,2) (G,,2 |!>(! G,,4!>)! E,4 | A,,4)!pp! (D,4 | G,,8 | %6
!<(! G,,4!<)! G,,2) (G,,2 |!>(! G,,4!>)! C,2 A,,2 | G,,6)!p! (G,F, |!<(! E,4!<)! A,,2 B,,2 | %10
 C,2!>(! D,2!>)! ^D,2)!p! (D,2 |!<(! E,2 =D,2!<)!!mf! C,2!>(! ^C,2!>)! | D,6)!pp! (G,,2 | %13
 G,,4 G,,4 |!<(! G,,4!<)! G,,2) (G,,2 |!>(! G,,4!>)! E,2 D,2 | G,,6) |] %17

